svgs/spotify.svg

<svg width="192" height="192" viewBox="0 0 192 192" fill="none" xmlns="http://www.w3.org/2000/svg">
<path d="M24.4188 57.5118C21.2222 58.3851 19.3388 61.6843 20.2121 64.8809C21.0854 68.0775 24.3847 69.9609 27.5812 69.0876L24.4188 57.5118ZM30.1245 91.8243C26.9484 92.7692 25.1396 96.1099 26.0845 99.2861C27.0294 102.462 30.3701 104.271 33.5462 103.326L30.1245 91.8243ZM35.7845 126.293C32.6429 127.347 30.9506 130.748 32.0047 133.89C33.0587 137.031 36.4599 138.724 39.6015 137.67L35.7845 126.293ZM141.732 146.283C144.65 147.854 148.288 146.762 149.86 143.845C151.431 140.927 150.339 137.288 147.422 135.717L141.732 146.283ZM156.529 114.891C159.47 116.418 163.092 115.272 164.619 112.331C166.146 109.39 165 105.768 162.059 104.241L156.529 114.891ZM171.287 83.5069C174.243 85.0051 177.854 83.8235 179.352 80.8677C180.85 77.912 179.668 74.3015 176.713 72.8033L171.287 83.5069ZM27.5812 69.0876C44.4812 64.4706 62.3038 62 80.7263 62V50C61.2269 50 42.341 52.6155 24.4188 57.5118L27.5812 69.0876ZM33.5462 103.326C48.4657 98.8878 64.305 96.4982 80.7263 96.4982V84.4982C63.1358 84.4982 46.1443 87.0586 30.1245 91.8243L33.5462 103.326ZM39.6015 137.67C52.4877 133.346 66.3197 130.996 80.7263 130.996V118.996C65.0078 118.996 49.8873 121.561 35.7845 126.293L39.6015 137.67ZM80.7263 130.996C102.86 130.996 123.646 136.543 141.732 146.283L147.422 135.717C127.623 125.055 104.886 118.996 80.7263 118.996V130.996ZM80.7263 96.4982C108.13 96.4982 133.924 103.153 156.529 114.891L162.059 104.241C137.779 91.6336 110.092 84.4982 80.7263 84.4982V96.4982ZM80.7263 62C113.391 62 144.18 69.7673 171.287 83.5069L176.713 72.8033C147.956 58.2275 115.311 50 80.7263 50V62Z" fill="black"/>
</svg>

<svg xmlns="http://www.w3.org/2000/svg" width="192" height="192" fill="none" xmlns:v="https://vecta.io/nano"><path d="M24.419 57.512a6 6 0 1 0 3.162 11.576l-3.162-11.576zm5.706 34.312a6 6 0 0 0 3.422 11.502l-3.422-11.502zm5.66 34.469a6 6 0 1 0 3.817 11.377l-3.817-11.377zm105.947 19.99c2.918 1.571 6.556.479 8.128-2.438s.479-6.557-2.438-8.128l-5.69 10.566zm14.797-31.392a6 6 0 1 0 5.53-10.65l-5.53 10.65zm14.758-31.384a6 6 0 1 0 5.426-10.704l-5.426 10.704zM27.581 69.088C44.481 64.471 62.304 62 80.726 62V50c-19.499 0-38.385 2.615-56.307 7.512l3.162 11.576zm5.965 34.238c14.92-4.438 30.759-6.828 47.18-6.828v-12c-17.59 0-34.582 2.56-50.602 7.326l3.422 11.502zm6.055 34.344c12.886-4.324 26.718-6.674 41.125-6.674v-12c-15.718 0-30.839 2.565-44.942 7.297l3.817 11.377zm41.125-6.674c22.134 0 42.92 5.547 61.006 15.287l5.69-10.566c-19.799-10.662-42.536-16.721-66.696-16.721v12zm0-34.498c27.404 0 53.198 6.655 75.803 18.393l5.53-10.65c-24.28-12.607-51.967-19.743-81.333-19.743v12zm0-34.498c32.665 0 63.454 7.767 90.561 21.507l5.426-10.704C147.956 58.228 115.311 50 80.726 50v12z" fill="#000"/></svg>
